; Put this information at the top of your GCODE to help debug
;
; Explo 3D Print Information
; Author: Donald Merand
; Included Model File(s): iOS Device Robot Mount v2 - Top Plate.stl, iOS Device Robot Mount v2 - Arm.stl, iOS Device Robot Mount v2 - Floor Plate.stl
; How Many Copies: 1x
; Printer: PrintrBot SM
; Filament: PLA
;
; G-Code generated by Simplify3D(R) Version 3.0.2
; Mar 1, 2016 at 10:05:55 PM
; Settings Summary
;   processName,PB PLA Fast
;   applyToModels,iOS Device Robot Mount v2 - Top Plate
;   profileName,Explo Printrbot (modified)
;   profileVersion,2016-02-22 15:44:50
;   baseProfile,Printrbot Simple Metal
;   printMaterial,PLA
;   printQuality,Fast
;   printExtruders,
;   extruderName,Primary Extruder
;   extruderToolheadNumber,0
;   extruderDiameter,0.4
;   extruderAutoWidth,0
;   extruderWidth,0.4
;   extrusionMultiplier,1
;   extruderUseRetract,1
;   extruderRetractionDistance,1
;   extruderExtraRestartDistance,0
;   extruderRetractionZLift,0
;   extruderRetractionSpeed,1800
;   extruderUseCoasting,0
;   extruderCoastingDistance,0.2
;   extruderUseWipe,0
;   extruderWipeDistance,5
;   primaryExtruder,0
;   layerHeight,0.3
;   topSolidLayers,3
;   bottomSolidLayers,2
;   perimeterOutlines,2
;   printPerimetersInsideOut,1
;   startPointOption,1
;   startPointOriginX,0
;   startPointOriginY,0
;   startPointOriginZ,0
;   sequentialIslands,0
;   spiralVaseMode,0
;   firstLayerHeightPercentage,90
;   firstLayerWidthPercentage,100
;   firstLayerUnderspeed,0.4
;   useRaft,0
;   raftExtruder,0
;   raftLayers,3
;   raftOffset,3
;   raftSeparationDistance,0.14
;   raftInfill,85
;   disableRaftBaseLayers,0
;   useSkirt,1
;   skirtExtruder,0
;   skirtLayers,1
;   skirtOutlines,1
;   skirtOffset,4
;   usePrimePillar,0
;   primePillarExtruder,999
;   primePillarWidth,12
;   primePillarLocation,7
;   primePillarSpeedMultiplier,1
;   useOozeShield,0
;   oozeShieldExtruder,999
;   oozeShieldOffset,2
;   oozeShieldOutlines,1
;   oozeShieldSidewallShape,1
;   oozeShieldSidewallAngle,30
;   oozeShieldSpeedMultiplier,1
;   infillExtruder,0
;   internalInfillPattern,Rectilinear
;   externalInfillPattern,Rectilinear
;   infillPercentage,15
;   outlineOverlapPercentage,15
;   infillExtrusionWidthPercentage,100
;   minInfillLength,5
;   infillLayerInterval,1
;   infillAngles,45,-45
;   overlapInfillAngles,0
;   generateSupport,0
;   supportExtruder,0
;   supportInfillPercentage,25
;   supportExtraInflation,0
;   denseSupportLayers,0
;   denseSupportInfillPercentage,70
;   supportLayerInterval,1
;   supportHorizontalPartOffset,0.3
;   supportUpperSeparationLayers,1
;   supportLowerSeparationLayers,1
;   supportType,0
;   supportGridSpacing,4
;   maxOverhangAngle,45
;   supportAngles,0
;   temperatureName,Primary Extruder,Heated Bed
;   temperatureNumber,0,1
;   temperatureSetpointCount,1,1
;   temperatureSetpointLayers,1,1
;   temperatureSetpointTemperatures,215,20
;   temperatureStabilizeAtStartup,1,1
;   temperatureHeatedBed,0,1
;   temperatureRelayBetweenLayers,0,0
;   temperatureRelayBetweenLoops,0,0
;   fanLayers,1,2
;   fanSpeeds,0,100
;   blipFanToFullPower,1
;   adjustSpeedForCooling,1
;   minSpeedLayerTime,15
;   minCoolingSpeedSlowdown,20
;   increaseFanForCooling,0
;   minFanLayerTime,45
;   maxCoolingFanSpeed,100
;   increaseFanForBridging,0
;   bridgingFanSpeed,100
;   use5D,1
;   relativeEdistances,0
;   allowEaxisZeroing,1
;   independentExtruderAxes,0
;   includeM10123,0
;   stickySupport,1
;   applyToolheadOffsets,0
;   gcodeXoffset,0
;   gcodeYoffset,0
;   gcodeZoffset,0
;   overrideMachineDefinition,1
;   machineTypeOverride,0
;   strokeXoverride,150
;   strokeYoverride,150
;   strokeZoverride,150
;   originOffsetXoverride,0
;   originOffsetYoverride,0
;   originOffsetZoverride,0
;   homeXdirOverride,-1
;   homeYdirOverride,-1
;   homeZdirOverride,-1
;   flipXoverride,1
;   flipYoverride,-1
;   flipZoverride,1
;   toolheadOffsets,0,0|0,0|0,0|0,0|0,0|0,0
;   overrideFirmwareConfiguration,1
;   firmwareTypeOverride,RepRap (Marlin/Repetier/Sprinter)
;   GPXconfigOverride,r2
;   baudRateOverride,250000
;   overridePrinterModels,1
;   printerModelsOverride
;   startingGcode,; Custom script modified from the Type A Series 1 startup script - Donald,G28 X0 Y0 ; home X and Y axes,G29 ; probe Z,G1 X5 Y0 Z15 F9600 ; move to front of platform,G92 E0 ; zero extruder,G1 E40 F220 ; purge nozzle,G92 E0 ; zero extruder,G1 X5 Y20 Z0.2 E1.0 F9600 ; back to table,G1 X5 Y130 Z0.1 E2.0 F1000 ; wipe,G92 E0 ; zero extruder,G1 X15 Z0.25 ; lift
;   layerChangeGcode,
;   retractionGcode,
;   toolChangeGcode,
;   endingGcode,M104 S0 T0 ; turn off extruder,M140 S0 T1 ; turn off bed,M106 S0 ; turn off fan,G28 X0 Y0 ; home X axis,G1 Z10 ; pull Z axis up,M84 ; disable motors
;   createX3G,0
;   celebration,0
;   celebrationSong,Random Song
;   createMB5G,0
;   postProcessing,
;   defaultSpeed,3000
;   outlineUnderspeed,0.5
;   solidInfillUnderspeed,0.8
;   supportUnderspeed,0.8
;   rapidXYspeed,3600
;   rapidZspeed,1002
;   minBridgingArea,50
;   bridgingExtraInflation,0
;   bridgingExtrusionMultiplier,1
;   bridgingSpeedMultiplier,1
;   filamentDiameter,1.75
;   filamentPricePerKg,46
;   filamentDensity,1.25
;   useMinPrintHeight,0
;   minPrintHeight,0
;   useMaxPrintHeight,0
;   maxPrintHeight,0
;   useDiaphragm,0
;   diaphragmLayerInterval,20
;   robustSlicing,1
;   mergeAllIntoSolid,0
;   onlyRetractWhenCrossingOutline,1
;   retractBetweenLayers,1
;   useRetractionMinTravel,0
;   retractionMinTravel,3
;   retractWhileWiping,0
;   onlyWipeOutlines,1
;   avoidCrossingOutline,0
;   maxMovementDetourFactor,3
;   toolChangeRetractionDistance,12
;   toolChangeExtraRestartDistance,-0.5
;   toolChangeRetractionSpeed,600
;   allowThinWallGapFill,1
;   thinWallAllowedOverlapPercentage,10
;   horizontalSizeCompensation,0
G90
M82
M106 S0
M140 S20
M190 S20
M104 S215 T0
M109 S215 T0
; Custom script modified from the Type A Series 1 startup script - Donald
G28 X0 Y0 ; home X and Y axes
G29 ; probe Z
G1 X5 Y0 Z15 F9600 ; move to front of platform
G92 E0 ; zero extruder
G1 E40 F220 ; purge nozzle
G92 E0 ; zero extruder
G1 X5 Y20 Z0.2 E1.0 F9600 ; back to table
G1 X5 Y130 Z0.1 E2.0 F1000 ; wipe
G92 E0 ; zero extruder
G1 X15 Z0.25 ; lift
G92 E0
G1 E-1.0000 F1800
G1 Z0.270 F1002
; layer 1, Z = 0.27
T0
; tool H0.300 W0.400
; skirt
G1 X38.580 Y34.730 F3600
G1 E0.0000 F540
G92 E0
G1 X40.980 Y32.330 E0.1693 F1200
G1 X41.053 Y32.300 E0.1733
G1 X108.947 Y32.300 E3.5605
G1 X109.020 Y32.330 E3.5644
G1 X111.420 Y34.730 E3.7337
G1 X111.450 Y34.803 E3.7377
G1 X111.450 Y115.197 E7.7485
G1 X111.420 Y115.270 E7.7525
G1 X109.020 Y117.670 E7.9218
G1 X108.947 Y117.700 E7.9258
G1 X41.053 Y117.700 E11.3130
G1 X40.980 Y117.670 E11.3169
G1 X38.580 Y115.270 E11.4862
G1 X38.550 Y115.197 E11.4902
G1 X38.550 Y34.803 E15.5010
G1 X38.580 Y34.730 E15.5050
G92 E0
G1 E-1.0000 F1800
; inner perimeter
G1 X43.350 Y112.900 F3600
G1 E0.0000 F1800
G92 E0
G1 X43.350 Y37.100 E3.7817 F900
G1 X106.650 Y37.100 E6.9397
G1 X106.650 Y112.900 E10.7214
G1 X43.350 Y112.900 E13.8795
; outer perimeter
G1 X42.950 Y113.300 F3600
G92 E0
G1 X42.950 Y36.700 E3.8216 F600
G1 X107.050 Y36.700 E7.0196
G1 X107.050 Y113.300 E10.8411
G1 X42.950 Y113.300 E14.0391
; inner perimeter
G1 X46.690 Y108.202 F3600
G92 E0
G1 X46.909 Y108.332 E0.0127 F900
G1 X47.141 Y108.438 E0.0254
G1 X47.382 Y108.518 E0.0381
G1 X47.631 Y108.571 E0.0508
G1 X47.884 Y108.598 E0.0635
G1 X48.139 Y108.596 E0.0762
G1 X48.392 Y108.568 E0.0889
G1 X48.640 Y108.512 E0.1016
G1 X48.881 Y108.429 E0.1143
G1 X49.111 Y108.321 E0.1270
G1 X49.328 Y108.189 E0.1397
G1 X49.530 Y108.034 E0.1524
G1 X49.714 Y107.858 E0.1651
G1 X49.878 Y107.663 E0.1778
G1 X50.020 Y107.452 E0.1905
G1 X50.138 Y107.227 E0.2032
G1 X50.231 Y106.990 E0.2159
G1 X50.302 Y106.729 E0.2293
G1 X50.350 Y106.282 E0.2517
G1 X50.350 Y72.324 E1.9459
G1 X50.335 Y72.084 E1.9579
G1 X50.293 Y71.834 E1.9706
G1 X50.224 Y71.589 E1.9833
G1 X50.128 Y71.353 E1.9960
G1 X50.008 Y71.128 E2.0087
G1 X49.864 Y70.918 E2.0214
G1 X49.699 Y70.725 E2.0341
G1 X49.513 Y70.551 E2.0468
G1 X49.310 Y70.398 E2.0595
G1 X49.091 Y70.268 E2.0722
G1 X48.859 Y70.162 E2.0849
G1 X48.618 Y70.082 E2.0976
G1 X48.369 Y70.029 E2.1103
G1 X48.116 Y70.002 E2.1230
G1 X47.861 Y70.004 E2.1357
G1 X47.608 Y70.032 E2.1484
G1 X47.360 Y70.088 E2.1611
G1 X47.119 Y70.171 E2.1738
G1 X46.889 Y70.279 E2.1865
G1 X46.672 Y70.411 E2.1991
G1 X46.470 Y70.566 E2.2118
G1 X46.286 Y70.742 E2.2245
G1 X46.122 Y70.937 E2.2372
G1 X45.981 Y71.147 E2.2499
G1 X45.866 Y71.364 E2.2621
G1 X45.769 Y71.610 E2.2753
G1 X45.698 Y71.871 E2.2888
G1 X45.650 Y72.318 E2.3112
G1 X45.650 Y106.276 E4.0054
G1 X45.665 Y106.516 E4.0174
G1 X45.707 Y106.766 E4.0301
G1 X45.776 Y107.011 E4.0428
G1 X45.872 Y107.247 E4.0555
G1 X45.992 Y107.472 E4.0682
G1 X46.136 Y107.682 E4.0809
G1 X46.301 Y107.875 E4.0936
G1 X46.487 Y108.049 E4.1063
G1 X46.690 Y108.202 E4.1190
; outer perimeter
G1 X46.914 Y107.869 F3600
G92 E0
G1 X47.095 Y107.977 E0.0105 F600
G1 X47.287 Y108.065 E0.0211
G1 X47.488 Y108.131 E0.0316
G1 X47.694 Y108.176 E0.0421
G1 X47.904 Y108.197 E0.0527
G1 X48.115 Y108.196 E0.0632
G1 X48.325 Y108.173 E0.0737
G1 X48.531 Y108.126 E0.0843
G1 X48.731 Y108.058 E0.0948
G1 X48.922 Y107.968 E0.1053
G1 X49.102 Y107.859 E0.1159
G1 X49.270 Y107.730 E0.1264
G1 X49.422 Y107.584 E0.1369
G1 X49.558 Y107.422 E0.1475
G1 X49.676 Y107.247 E0.1580
G1 X49.774 Y107.060 E0.1685
G1 X49.851 Y106.864 E0.1791
G1 X49.908 Y106.655 E0.1898
G1 X49.950 Y106.261 E0.2096
G1 X49.950 Y72.336 E1.9022
G1 X49.937 Y72.130 E1.9125
G1 X49.902 Y71.922 E1.9230
G1 X49.845 Y71.718 E1.9335
G1 X49.766 Y71.523 E1.9441
G1 X49.666 Y71.337 E1.9546
G1 X49.547 Y71.162 E1.9651
G1 X49.409 Y71.002 E1.9757
G1 X49.255 Y70.858 E1.9862
G1 X49.086 Y70.731 E1.9967
G1 X48.905 Y70.623 E2.0073
G1 X48.713 Y70.535 E2.0178
G1 X48.512 Y70.469 E2.0283
G1 X48.306 Y70.424 E2.0388
G1 X48.096 Y70.403 E2.0494
G1 X47.885 Y70.404 E2.0599
G1 X47.675 Y70.427 E2.0704
G1 X47.469 Y70.474 E2.0810
G1 X47.269 Y70.542 E2.0915
G1 X47.078 Y70.632 E2.1020
G1 X46.898 Y70.741 E2.1126
G1 X46.730 Y70.870 E2.1231
G1 X46.578 Y71.016 E2.1336
G1 X46.442 Y71.178 E2.1442
G1 X46.325 Y71.352 E2.1547
G1 X46.230 Y71.531 E2.1648
G1 X46.149 Y71.736 E2.1758
G1 X46.092 Y71.945 E2.1866
G1 X46.050 Y72.339 E2.2064
G1 X46.050 Y106.264 E3.8989
G1 X46.063 Y106.470 E3.9092
G1 X46.098 Y106.678 E3.9197
G1 X46.155 Y106.882 E3.9302
G1 X46.234 Y107.077 E3.9408
G1 X46.334 Y107.263 E3.9513
G1 X46.453 Y107.438 E3.9618
G1 X46.591 Y107.598 E3.9724
G1 X46.745 Y107.742 E3.9829
G1 X46.914 Y107.869 E3.9934
G92 E0
G1 E-1.0000 F1800
; inner perimeter
G1 X72.704 Y106.755 F3600
G1 E0.0000 F1800
G92 E0
G1 X72.772 Y107.001 E0.0127 F900
G1 X72.866 Y107.237 E0.0254
G1 X72.986 Y107.462 E0.0381
G1 X73.128 Y107.673 E0.0508
G1 X73.293 Y107.867 E0.0635
G1 X73.478 Y108.042 E0.0762
G1 X73.681 Y108.196 E0.0889
G1 X73.899 Y108.327 E0.1016
G1 X74.130 Y108.434 E0.1143
G1 X74.371 Y108.515 E0.1270
G1 X74.620 Y108.570 E0.1397
G1 X74.873 Y108.597 E0.1524
G1 X75.127 Y108.597 E0.1651
G1 X75.380 Y108.570 E0.1778
G1 X75.629 Y108.515 E0.1905
G1 X75.870 Y108.434 E0.2032
G1 X76.101 Y108.327 E0.2159
G1 X76.319 Y108.196 E0.2286
G1 X76.522 Y108.042 E0.2413
G1 X76.707 Y107.867 E0.2540
G1 X76.872 Y107.673 E0.2667
G1 X77.014 Y107.462 E0.2794
G1 X77.134 Y107.237 E0.2921
G1 X77.228 Y107.001 E0.3048
G1 X77.296 Y106.755 E0.3175
G1 X77.337 Y106.504 E0.3302
G1 X77.350 Y106.266 E0.3421
G1 X77.350 Y89.284 E1.1893
G1 X77.337 Y89.046 E1.2012
G1 X77.296 Y88.795 E1.2139
G1 X77.228 Y88.549 E1.2266
G1 X77.134 Y88.313 E1.2393
G1 X77.014 Y88.088 E1.2520
G1 X76.872 Y87.877 E1.2647
G1 X76.707 Y87.683 E1.2774
G1 X76.522 Y87.508 E1.2901
G1 X76.319 Y87.354 E1.3028
G1 X76.101 Y87.223 E1.3155
G1 X75.870 Y87.116 E1.3282
G1 X75.629 Y87.035 E1.3409
G1 X75.380 Y86.980 E1.3536
G1 X75.127 Y86.953 E1.3663
G1 X74.873 Y86.953 E1.3790
G1 X74.620 Y86.980 E1.3917
G1 X74.371 Y87.035 E1.4044
G1 X74.130 Y87.116 E1.4171
G1 X73.899 Y87.223 E1.4298
G1 X73.681 Y87.354 E1.4425
G1 X73.478 Y87.508 E1.4552
G1 X73.293 Y87.683 E1.4679
G1 X73.128 Y87.877 E1.4806
G1 X72.986 Y88.088 E1.4933
G1 X72.866 Y88.313 E1.5060
G1 X72.772 Y88.549 E1.5187
G1 X72.704 Y88.795 E1.5314
G1 X72.663 Y89.046 E1.5441
G1 X72.650 Y89.284 E1.5560
G1 X72.650 Y106.266 E2.4033
G1 X72.663 Y106.504 E2.4151
G1 X72.704 Y106.755 E2.4278
; outer perimeter
G1 X73.095 Y106.669 F3600
G92 E0
G1 X73.152 Y106.873 E0.0105 F600
G1 X73.230 Y107.069 E0.0211
G1 X73.329 Y107.255 E0.0316
G1 X73.447 Y107.430 E0.0421
G1 X73.584 Y107.591 E0.0527
G1 X73.737 Y107.736 E0.0632
G1 X73.906 Y107.864 E0.0737
G1 X74.086 Y107.973 E0.0843
G1 X74.278 Y108.062 E0.0948
G1 X74.478 Y108.129 E0.1054
G1 X74.684 Y108.175 E0.1159
G1 X74.894 Y108.197 E0.1264
G1 X75.106 Y108.197 E0.1370
G1 X75.316 Y108.175 E0.1475
G1 X75.522 Y108.129 E0.1580
G1 X75.722 Y108.062 E0.1686
G1 X75.914 Y107.973 E0.1791
G1 X76.094 Y107.864 E0.1896
G1 X76.263 Y107.736 E0.2002
G1 X76.416 Y107.591 E0.2107
G1 X76.553 Y107.430 E0.2212
G1 X76.671 Y107.255 E0.2318
G1 X76.770 Y107.069 E0.2423
G1 X76.848 Y106.873 E0.2529
G1 X76.905 Y106.669 E0.2634
G1 X76.939 Y106.461 E0.2739
G1 X76.950 Y106.255 E0.2842
G1 X76.950 Y89.295 E1.1304
G1 X76.939 Y89.089 E1.1406
G1 X76.905 Y88.881 E1.1512
G1 X76.848 Y88.677 E1.1617
G1 X76.770 Y88.481 E1.1722
G1 X76.671 Y88.295 E1.1828
G1 X76.553 Y88.120 E1.1933
G1 X76.416 Y87.959 E1.2038
G1 X76.263 Y87.814 E1.2144
G1 X76.094 Y87.686 E1.2249
G1 X75.914 Y87.577 E1.2355
G1 X75.722 Y87.488 E1.2460
G1 X75.522 Y87.421 E1.2565
G1 X75.316 Y87.375 E1.2671
G1 X75.106 Y87.353 E1.2776
G1 X74.894 Y87.353 E1.2881
G1 X74.684 Y87.375 E1.2987
G1 X74.478 Y87.421 E1.3092
G1 X74.278 Y87.488 E1.3197
G1 X74.086 Y87.577 E1.3303
G1 X73.906 Y87.686 E1.3408
G1 X73.737 Y87.814 E1.3513
G1 X73.584 Y87.959 E1.3619
G1 X73.447 Y88.120 E1.3724
G1 X73.329 Y88.295 E1.3829
G1 X73.230 Y88.481 E1.3935
G1 X73.152 Y88.677 E1.4040
G1 X73.095 Y88.881 E1.4146
G1 X73.061 Y89.089 E1.4251
G1 X73.050 Y89.295 E1.4354
G1 X73.050 Y106.255 E2.2815
G1 X73.061 Y106.461 E2.2918
G1 X73.095 Y106.669 E2.3023
G92 E0
G1 E-1.0000 F1800
; inner perimeter
G1 X99.665 Y106.516 F3600
G1 E0.0000 F1800
G92 E0
G1 X99.707 Y106.766 E0.0127 F900
G1 X99.776 Y107.011 E0.0254
G1 X99.872 Y107.247 E0.0381
G1 X99.992 Y107.472 E0.0508
G1 X100.136 Y107.682 E0.0635
G1 X100.301 Y107.875 E0.0762
G1 X100.487 Y108.049 E0.0889
G1 X100.690 Y108.202 E0.1016
G1 X100.909 Y108.332 E0.1143
G1 X101.141 Y108.438 E0.1270
G1 X101.382 Y108.518 E0.1397
G1 X101.631 Y108.571 E0.1524
G1 X101.884 Y108.598 E0.1651
G1 X102.139 Y108.596 E0.1778
G1 X102.392 Y108.568 E0.1905
G1 X102.640 Y108.512 E0.2032
G1 X102.881 Y108.429 E0.2159
G1 X103.111 Y108.321 E0.2285
G1 X103.328 Y108.189 E0.2412
G1 X103.530 Y108.034 E0.2539
G1 X103.714 Y107.858 E0.2666
G1 X103.878 Y107.663 E0.2793
G1 X104.020 Y107.452 E0.2920
G1 X104.138 Y107.227 E0.3047
G1 X104.231 Y106.990 E0.3174
G1 X104.302 Y106.729 E0.3309
G1 X104.350 Y106.282 E0.3533
G1 X104.350 Y72.324 E2.0475
G1 X104.335 Y72.086 E2.0594
G1 X104.296 Y71.843 E2.0717
G1 X104.224 Y71.589 E2.0849
G1 X104.128 Y71.353 E2.0976
G1 X104.008 Y71.128 E2.1103
G1 X103.864 Y70.918 E2.1230
G1 X103.699 Y70.725 E2.1357
G1 X103.513 Y70.551 E2.1484
G1 X103.310 Y70.398 E2.1611
G1 X103.091 Y70.268 E2.1737
G1 X102.859 Y70.162 E2.1865
G1 X102.618 Y70.082 E2.1991
G1 X102.369 Y70.029 E2.2118
G1 X102.116 Y70.002 E2.2245
G1 X101.861 Y70.004 E2.2372
G1 X101.608 Y70.032 E2.2499
G1 X101.360 Y70.088 E2.2626
G1 X101.119 Y70.171 E2.2753
G1 X100.889 Y70.279 E2.2880
G1 X100.672 Y70.411 E2.3007
G1 X100.470 Y70.566 E2.3134
G1 X100.286 Y70.742 E2.3261
G1 X100.122 Y70.937 E2.3388
G1 X99.980 Y71.148 E2.3515
G1 X99.862 Y71.374 E2.3642
G1 X99.769 Y71.610 E2.3769
G1 X99.698 Y71.871 E2.3904
G1 X99.650 Y72.318 E2.4128
G1 X99.650 Y106.276 E4.1070
G1 X99.665 Y106.516 E4.1190
; outer perimeter
G1 X100.063 Y106.470 F3600
G92 E0
G1 X100.098 Y106.678 E0.0105 F600
G1 X100.155 Y106.882 E0.0211
G1 X100.234 Y107.077 E0.0316
G1 X100.334 Y107.263 E0.0421
G1 X100.453 Y107.438 E0.0527
G1 X100.591 Y107.598 E0.0632
G1 X100.745 Y107.742 E0.0737
G1 X100.914 Y107.869 E0.0843
